ukui-icon-theme-default/scalable/actions/view-app-grid-symbolic.svg

<svg id="图层_1" data-name="图层 1" xmlns="http://www.w3.org/2000/svg" viewBox="0 0 16 16"><defs><style>.cls-1{fill:#1f2022;opacity:0.75;}</style></defs><title>view-app-grid-symbolic</title><path class="cls-1" d="M3.8,3C3.3,3,3,3,3,3.6v.8c0,.6.3.6.8.6h.4C4.7,5,5,5,5,4.4V3.6C5,3,4.7,3,4.2,3Zm4,0C7.3,3,7,3,7,3.6v.8c0,.6.3.6.8.6h.4C8.7,5,9,5,9,4.4V3.6C9,3,8.7,3,8.2,3Zm4,0c-.5,0-.8,0-.8.6v.8c0,.6.3.6.8.6h.4c.5,0,.8,0,.8-.6V3.6c0-.6-.3-.6-.8-.6Zm-8,4C3.3,7,3,7,3,7.6v.8c0,.6.3.6.8.6h.4C4.7,9,5,9,5,8.4V7.6C5,7,4.7,7,4.2,7Zm4,0C7.3,7,7,7,7,7.6v.8c0,.6.3.6.8.6h.4C8.7,9,9,9,9,8.4V7.6C9,7,8.7,7,8.2,7Zm4,0c-.5,0-.8,0-.8.6v.8c0,.6.3.6.8.6h.4c.5,0,.8,0,.8-.6V7.6c0-.6-.3-.6-.8-.6Zm-8,4c-.5,0-.8,0-.8.6v.8c0,.6.3.6.8.6h.4c.5,0,.8,0,.8-.6v-.8c0-.6-.3-.6-.8-.6Zm4,0c-.5,0-.8,0-.8.6v.8c0,.6.3.6.8.6h.4c.5,0,.8,0,.8-.6v-.8c0-.6-.3-.6-.8-.6Zm4,0c-.5,0-.8,0-.8.6v.8c0,.6.3.6.8.6h.4c.5,0,.8,0,.8-.6v-.8c0-.6-.3-.6-.8-.6Z"/></svg>

<?xml version="1.0" encoding="iso-8859-1"?>
<!-- Generator: Adobe Illustrator 24.0.0, SVG Export Plug-In . SVG Version: 6.00 Build 0)  -->
<svg version="1.1" id="t" xmlns="http://www.w3.org/2000/svg" xmlns:xlink="http://www.w3.org/1999/xlink" x="0px" y="0px"
	 viewBox="0 0 16 16" style="enable-background:new 0 0 16 16;" xml:space="preserve">
<title>16</title>
<path id="_16" style="fill:#808080;" d="M3.8,3C3.3,3,3,3,3,3.6v0.8C3,5,3.3,5,3.8,5h0.4C4.7,5,5,5,5,4.4V3.6C5,3,4.7,3,4.2,3H3.8z
	 M7.8,3C7.3,3,7,3,7,3.6v0.8C7,5,7.3,5,7.8,5h0.4C8.7,5,9,5,9,4.4V3.6C9,3,8.7,3,8.2,3H7.8z M11.8,3C11.3,3,11,3,11,3.6v0.8
	C11,5,11.3,5,11.8,5h0.4C12.7,5,13,5,13,4.4V3.6C13,3,12.7,3,12.2,3H11.8z M3.8,7C3.3,7,3,7,3,7.6v0.8C3,9,3.3,9,3.8,9h0.4
	C4.7,9,5,9,5,8.4V7.6C5,7,4.7,7,4.2,7H3.8z M7.8,7C7.3,7,7,7,7,7.6v0.8C7,9,7.3,9,7.8,9h0.4C8.7,9,9,9,9,8.4V7.6C9,7,8.7,7,8.2,7
	H7.8z M11.8,7C11.3,7,11,7,11,7.6v0.8C11,9,11.3,9,11.8,9h0.4C12.7,9,13,9,13,8.4V7.6C13,7,12.7,7,12.2,7H11.8z M3.8,11
	C3.3,11,3,11,3,11.6v0.8C3,13,3.3,13,3.8,13h0.4C4.7,13,5,13,5,12.4v-0.8C5,11,4.7,11,4.2,11H3.8z M7.8,11C7.3,11,7,11,7,11.6v0.8
	C7,13,7.3,13,7.8,13h0.4C8.7,13,9,13,9,12.4v-0.8C9,11,8.7,11,8.2,11H7.8z M11.8,11c-0.5,0-0.8,0-0.8,0.6v0.8c0,0.6,0.3,0.6,0.8,0.6
	h0.4c0.5,0,0.8,0,0.8-0.6v-0.8c0-0.6-0.3-0.6-0.8-0.6H11.8z"/>
</svg>
